public/assets/svgs/navbar/contact.svg

<svg height="60" viewBox="0 0 60 60" width="60" xmlns="http://www.w3.org/2000/svg"><g fill="none" fill-rule="evenodd" transform="translate(1 1)"><path d="m39.741 9-8.879-8.267c-1.049-.976-2.675-.976-3.723 0l-8.88 8.267z" fill="#fff"/><path d="m39.741 9-8.879-8.267c-1.049-.976-2.675-.976-3.723 0l-8.88 8.267z" stroke="#99a3a4" stroke-linecap="round" stroke-linejoin="round" stroke-width="2"/><path d="m52 20.413v10.158l-15 11.429h-16l-15-11.429v-10.158l-6 5.586v32.001h58v-32.001z" fill="#fff"/><path d="m52 20.413v10.158l-15 11.429h-16l-15-11.429v-10.158l-6 5.586v32.001h58v-32.001z" stroke="#99a3a4" stroke-linecap="round" stroke-linejoin="round" stroke-width="2"/><path d="m52 9h-46v21.571l15 11.429h16l15-11.429z" fill="#d4e7f0"/><path d="m52 9h-46v21.571l15 11.429h16l15-11.429z" stroke="#99a3a4" stroke-linecap="round" stroke-linejoin="round" stroke-width="2"/><path d="m0 56.709v-29.418c0-.529.606-.829 1.027-.509l19.973 15.218-19.973 15.218c-.421.321-1.027.02-1.027-.509zm58 0v-29.418c0-.529-.606-.829-1.027-.509l-19.973 15.218 19.973 15.218c.421.321 1.027.02 1.027-.509zm-38-14.709h17zm6-25h6m3 16h6m-24-8h5m8 0h7" stroke="#99a3a4" stroke-linecap="round" stroke-linejoin="round" stroke-width="2"/><path d="m26 26c-.26 0-.521-.11-.71-.29-.181-.19-.29-.45-.29-.71s.109-.521.29-.71c.37-.37 1.04-.37 1.42 0 .18.189.29.45.29.71s-.11.52-.29.71c-.191.18-.45.29-.71.29" fill="#99a3a4"/><path d="m21 33h10" stroke="#99a3a4" stroke-linecap="round" stroke-linejoin="round" stroke-width="2"/><path d="m17 34c-.26 0-.521-.11-.71-.29-.181-.19-.29-.45-.29-.71 0-.271.109-.521.29-.71.37-.37 1.04-.37 1.42 0 .18.189.29.439.29.71 0 .26-.11.52-.29.71-.191.18-.45.29-.71.29m24-8c-.26 0-.521-.11-.71-.29-.181-.19-.29-.45-.29-.71s.109-.521.29-.71c.37-.37 1.04-.37 1.42 0 .18.189.29.439.29.71 0 .27-.11.52-.3.71-.181.18-.44.29-.7.29" fill="#99a3a4"/></g></svg>

<svg xmlns="http://www.w3.org/2000/svg" width="60" height="60" viewBox="0 0 60 60">
  <g fill="none" fill-rule="evenodd" transform="translate(1 1)">
    <path fill="#FFF" d="M39.741,9 L30.862,0.733 C29.813,-0.243 28.187,-0.243 27.139,0.733 L18.259,9 L39.741,9 L39.741,9 Z"/>
    <path stroke="#99A3A4" stroke-linecap="round" stroke-linejoin="round" stroke-width="2" d="M39.741,9 L30.862,0.733 C29.813,-0.243 28.187,-0.243 27.139,0.733 L18.259,9 L39.741,9 L39.741,9 Z"/>
    <polygon fill="#FFF" points="52 20.413 52 30.571 37 42 21 42 6 30.571 6 20.413 0 25.999 0 58 58 58 58 25.999"/>
    <polygon stroke="#99A3A4" stroke-linecap="round" stroke-linejoin="round" stroke-width="2" points="52 20.413 52 30.571 37 42 21 42 6 30.571 6 20.413 0 25.999 0 58 58 58 58 25.999"/>
    <polygon fill="#D4E7F0" points="52 9 6 9 6 30.571 21 42 37 42 52 30.571"/>
    <polygon stroke="#99A3A4" stroke-linecap="round" stroke-linejoin="round" stroke-width="2" points="52 9 6 9 6 30.571 21 42 37 42 52 30.571"/>
    <path stroke="#99A3A4" stroke-linecap="round" stroke-linejoin="round" stroke-width="2" d="M0 56.709L0 27.291C0 26.762.606 26.462 1.027 26.782L21 42 1.027 57.218C.606 57.539 0 57.238 0 56.709L0 56.709zM58 56.709L58 27.291C58 26.762 57.394 26.462 56.973 26.782L37 42 56.973 57.218C57.394 57.539 58 57.238 58 56.709L58 56.709zM20 42L37 42 20 42zM26 17L32 17M35 33L41 33M17 25L22 25M30 25L37 25"/>
    <path fill="#99A3A4" d="M26,26 C25.74,26 25.479,25.89 25.29,25.71 C25.109,25.52 25,25.26 25,25 C25,24.74 25.109,24.479 25.29,24.29 C25.66,23.92 26.33,23.92 26.71,24.29 C26.89,24.479 27,24.74 27,25 C27,25.26 26.89,25.52 26.71,25.71 C26.519,25.89 26.26,26 26,26"/>
    <path stroke="#99A3A4" stroke-linecap="round" stroke-linejoin="round" stroke-width="2" d="M21,33 L31,33"/>
    <path fill="#99A3A4" d="M17 34C16.74 34 16.479 33.89 16.29 33.71 16.109 33.52 16 33.26 16 33 16 32.729 16.109 32.479 16.29 32.29 16.66 31.92 17.33 31.92 17.71 32.29 17.89 32.479 18 32.729 18 33 18 33.26 17.89 33.52 17.71 33.71 17.519 33.89 17.26 34 17 34M41 26C40.74 26 40.479 25.89 40.29 25.71 40.109 25.52 40 25.26 40 25 40 24.74 40.109 24.479 40.29 24.29 40.66 23.92 41.33 23.92 41.71 24.29 41.89 24.479 42 24.729 42 25 42 25.27 41.89 25.52 41.7 25.71 41.519 25.89 41.26 26 41 26"/>
  </g>
</svg>
